!!key: tele-40-2-Fan-Viv-1-Flute
!!!COM: Telemann, Georg Philipp
!!!CDT: 1681/03/14-1767/06/25
!!!CBL: Magdeburg
!!!CDL: Hamburg
!!!CNT: German
!!!TWV: 40:2
!!!TWV-genre: 40
!!!TWV-work: 2
!!!OPR: 12 Fantasias for transverse flute without bass
!!!OTL: Fantasia 1
!!!OMD: Vivace
!!!OMV: 1
!!!ODT: ca. 1732–1733
!!!AST: Late Baroque
!!!AGN: Fantasia
!!!AMT: Simple quadruple
!!!AIN: Transverse flute
**kern	**dynam
*ICww	*
*Iflt	*
*clefG2	*
*k[f#c#g#]	*
*A:	*
*M4/4	*
*met(c)	*
=1	=1
[4a	.
16aLL]	.
16b	.
16a	.
16eJJ	.
16aLL	.
16cc#	.
16a	.
16eJJ	.
16aLL	.
16b	.
16a	.
16eJJ	.
=2	=2
16aLL	.
16cc#	.
16a	.
16eJJ	.
16a\LL	.
16ee	.
16a	.
16eJJ	.
16aLL	.
16ee	.
16ff#	.
16ddJJ	.
16eeLL	.
16cc#	.
16dd	.
16bJJ	.
!!LO:LB:g=original
=3	=3
16cc#LL	.
16ee	.
16ff#	.
16ddJJ	.
16eeLL	.
16cc#	.
16dd	.
16bJJ	.
16cc#LL	.
16a	.
16b	.
16cc#JJ	.
16ddLL	.
16ee	.
16ff#	.
16gg#JJ	.
=4	=4
16aaLL	.
16ee	.
16cc#	.
16aJJ	.
16aaLL	.
16ee	.
16cc#	.
16aJJ	.
8aaL	.
8aJ	.
4r	.
!!LO:LB:g=original
=5	=5
!TODO: trill +	!
16ddLL	.
16cc#JJ	.
4.dd	.
16ff#L	.
8.ddJ	.
16aaL	.
8.ddJ	.
=6	=6
!TODO: trill +	!
16cc#LL	.
16bJJ	.
4.cc#	.
16eeL	.
8.cc#J	.
16aaL	.
8.cc#J	.
=7	=7
16dLL	.
16cc#	.
16b	.
16aJJ	.
16ff#LL	.
16cc#	.
16b	.
16aJJ	.
16dLL	.
16cc#	.
16b	.
16aJJ	.
16ff#LL	.
16cc#	.
16b	.
16aJJ	.
!!LO:LB:g=original
=8	=8
16d#LL	.
16cc#	.
16b	.
16aJJ	.
16aaLL	.
16cc#	.
16b	.
16aJJ	.
16d#LL	.
16cc#	.
16b	.
16aJJ	.
16aaLL	.
16cc#	.
16b	.
16aJJ	.
=9	=9
16eLL	.
16g#	.
16b	.
16g#JJ	.
16eeLL	.
16b	.
16gg#	.
16eeJJ	.
16eLL	.
16a	.
16cc#	.
16aJJ	.
16eeLL	.
16cc#	.
16aa	.
16eeJJ	.
!!LO:LB:g=original
=10	=10
16eLL	.
16g#	.
16b	.
16g#JJ	.
16eeLL	.
16b	.
16gg#	.
16eeJJ	.
8bbL	.
8eJ	.
4r	.
=11	=11
4a`>	.
4dd`	.
4cc#`	.
4ff#`	.
=12	=12
8ddL	.
8b	.
8ee	.
8eJ	.
8a/L	.
8cc#	.
8b	.
8aJ	.
!!LO:LB:g=original
=13	=13
8eeL	.
8g#	.
8aa	.
8f#J	.
8gg#L	.
8e	.
8ccc#	.
8aJ	.
=14	=14
8aaL	.
8ff#	.
8bb	.
8bJ	.
8eeL	.
8g#	.
8cc#	.
8bJ	.
=15	=15
8a#L	.
16eeL	.
32ff#L	.
32ggnJJJ	.
8ff#L	.
8eeJ	.
8ddL	.
8f#	.
8b	.
8anJ	.
!!LO:LB:g=original
=16	=16
8g#L	.
16ddL	.
32eeL	.
32ff#JJJ	.
8eeL	.
8ddJ	.
8cc#L	.
16gnL	.
32aL	.
32bJJJ	.
8aL	.
8gJ	.
=17	=17
8ddL	.
8f#	.
8ggn	.
8eJ	.
8ff#L	.
8d	.
8bb	.
8gnJ	.
=18	=18
8ggnL	.
8ee	.
8aa	.
8aJ	.
16dLL	.
16dd	.
16cc#	.
16ddJJ	.
16ff#LL	.
16dd	.
16cc#	.
16ddJJ	.
!!LO:LB:g=original
=19	=19
16dLL	.
16dd	.
16cc#	.
16ddJJ	.
16aaLL	.
16dd	.
16cc#	.
16ddJJ	.
16aLL	.
16cc#	.
16b	.
16cc#JJ	.
16eeLL	.
16cc#	.
16b	.
16cc#JJ	.
=20	=20
16aLL	.
16cc#	.
16b	.
16cc#JJ	.
16aaLL	.
16cc#	.
16b	.
16cc#JJ	.
16g#LL	.
16dd	.
16cc#	.
16ddJJ	.
16eeLL	.
16dd	.
16cc#	.
16ddJJ	.
!!LO:LB:g=original
=21	=21
16eLL	.
16dd	.
16cc#	.
16ddJJ	.
16bbLL	.
16dd	.
16cc#	.
16ddJJ	.
8aL	.
8ccc#	.
8dd	.
8bbJ	.
=22	=22
8cc#L	.
8aa	.
8ff#	.
8aaJ	.
16ddLL	.
16ff#	.
16b	.
16ddJJ	.
16eeLL	.
16gg#	.
16e	.
16ddJJ	.
=23	=23
16aLL	.
16dd	.
16cc#	.
16bJJ	.
8cc#L	.
8f#J	.
8dL	.
8bb	.
8e	.
8gg#J	.
!!LO:LB:g=original
=24	=24
8aL	.
8ggn	.
8dd	.
8ff#J	.
16cc#LL	.
16aa	.
16gg#X	.
16aaJJ	.
16ff#LL	.
16aa	.
16gg#	.
16aaJJ	.
=25	=25
8ddL	.
8b	.
8ee	.
8eJ	.
8a/L	.
16cc#L	.
16bJJ	.
8cc#L	.
8f#J	.
=26	=26
8dL	.
8bb	.
8ee	.
8gg#J	.
4a	.
4r	.
!!LO:LB:g=original
=27	=27
!LO:TX:i:b:t=adagio allegro	!
!	!TODO: editorial
[4aa	f
24aaLL]	.
24ee	.
24cc#JJ	.
24eeLL	.
24cc#	.
24aJJ	.
24aaLL	p
24ee	.
24cc#JJ	.
24eeLL	.
24cc#	.
24aJJ	.
4r	.
=28	=28
!LO:TX:i:b:t=adagio allegro	!
!	!TODO: editorial
[4ggn	f
24ggLL]	.
24ee	.
24cc#JJ	.
24eeLL	.
24cc#	.
24aJJ	.
24ggLL	p
24ee	.
24cc#JJ	.
24eeLL	.
24cc#	.
24aJJ	.
4r	.
!!LO:LB:g=original
=29	=29
!LO:TX:i:b:t=adagio	!
32ff#LLL	f
32cc#JJ	.
8.ddJ	.
32eeLLL	.
32cc#JJ	.
8.ddJ	.
32aaLLL	.
32cc#JJ	.
8.ddJ	.
32eeLLL	.
32cc#JJ	.
8.ddJ	.
=30	=30
!LO:TX:i:b:t=adagio allegro	!
[4bb	.
24bbLL]	.
24ff#	.
24dd#XJJ	.
24ff#LL	.
24dd#	.
24bJJ	.
24bbLL	p
24ff#	.
24dd#JJ	.
24ff#LL	.
24dd#	.
24bJJ	.
4r	.
!!LO:LB:g=original
=31	=31
!LO:TX:i:b:t=adagio allegro	!
!	!TODO: editorial
[4aa	f
24aaLL]	.
24ff#	.
24dd#XJJ	.
24ff#LL	.
24dd#	.
24bJJ	.
24aaLL	p
24ff#	.
24dd#JJ	.
24ff#LL	.
24dd#	.
24bJJ	.
4r	.
=32	=32
!LO:TX:i:b:t=adagio	!
32gg#LLL	f
32dd#XJJ	.
8.eeJ	.
32ff#LLL	.
32dd#JJ	.
8.eeJ	.
32bbLLL	.
32dd#JJ	.
8.eeJ	.
32ff#LLL	.
32dd#JJ	.
8.eeJ	.
!!LO:LB:g=original
=33	=33
!LO:TX:i:b:t=adagio [allegro]	!
16f#LL	.
32ddnL	.
32cc#J	.
16dd	.
16ff#JJ	.
16r	.
16ff#LL	.
16ee	.
16ddJJ	.
16g#LL	.
32ddL	.
32cc#J	.
16dd	.
16ff#JJ	.
16r	.
16ff#LL	.
16ee	.
16ddJJ	.
=34	=34
16aLL	.
32cc#L	.
32bJ	.
16cc#	.
16aaJJ	.
16g#LL	.
16cc#	.
16ee	.
16aaJJ	.
16f#LL	.
32cc#L	.
32bJ	.
16cc#	.
16aaJJ	.
16eLL	.
16cc#	.
16ee	.
16aaJJ	.
!!LO:LB:g=original
=35	=35
8d#L	.
16r	.
16cc#J	.
!TODO: trill +	!
8.cc#L	.
32bLL	.
32cc#JJJ	.
16e`\LL	.
(16b	.
16dd#X	.
16eeJJ)	.
16a`LL	.
(16cc#	.
16dd#	.
16eeJJ)	.
=36	=36
16g#`LL	.
(16b	.
16dd#X	.
16eeJJ)	.
16f#`LL	.
(16a	.
16dd#	.
16eeJJ)	.
4e	.
4r	.
==	==
*-	*-
!!!RTL1: G. PH. Telemann: Twelve Fantasias for Flute without Bass TWV 40:2-13
!!!RPN1: D'Arcangelo, Rita
!!!RMM1: Da Vinci Classics
!!!RC#1: DV-C00440
!!!RRD1: 2022
!!!RLC1: Andreaskirche, Berlin, Germany
!!!RDT1: 16 September 2020, 17 September 2020
!!!RT#1: 1
!!!RTL2: The Telemann Files: 12 Fantasies for Solo Flute
!!!RPN2: Choi, Jasmine
!!!RMM2: Austrian Gramophone
!!!RC#2: AG0001
!!!RRD2: February 2015
!!!RLC2: LeFrak Hall, Queens, USA
!!!RDT2: 9 June 2014, 10 June 2014
!!!RT#2: 1
!!!RTL3: Georg Philipp Telemann: Twelve Fantasies for Flute
!!!RPN3: Robertello, Thomas
!!!RMM3: Delos
!!!RC#3: DE3396
!!!RRD3: 1 June 2009
!!!RLC3: Clear Creek Recording, Keene, California
!!!RDT3: Unknown
!!!RT#3: 1
!!!RDF**kern: > = above
